include/LD/assets/icons/utility/insert_template.svg

<?xml version="1.0"?><svg xmlns="http://www.w3.org/2000/svg" width="52" height="52" viewBox="0 0 52 52"><path fill="#fff" d="m48.5 38h-4.5v-4.5c0-0.8-0.7-1.5-1.5-1.5h-3c-0.8 0-1.5 0.7-1.5 1.5v4.5h-4.5c-0.8 0-1.5 0.7-1.5 1.5v3c0 0.8 0.7 1.5 1.5 1.5h4.5v4.5c0 0.8 0.7 1.5 1.5 1.5h3c0.8 0 1.5-0.7 1.5-1.5v-4.5h4.5c0.8 0 1.5-0.7 1.5-1.5v-3c0-0.8-0.7-1.5-1.5-1.5z m-14.5-8.5c0-0.8 0.7-1.5 1.5-1.5h2.5v-22c0-2.2-1.8-4-4-4h-28c-2.2 0-4 1.8-4 4v28c0 2.2 1.8 4 4 4h22v-2.5c0-0.8 0.7-1.5 1.5-1.5h4.5v-4.5z m-18-18.5c0 0.6-0.4 1-1 1h-6c-0.6 0-1-0.4-1-1v-2c0-0.6 0.4-1 1-1h6c0.6 0 1 0.4 1 1v2z m12 16c0 0.6-0.4 1-1 1h-18c-0.6 0-1-0.4-1-1v-2c0-0.6 0.4-1 1-1h18c0.6 0 1 0.4 1 1v2z m4-8c0 0.6-0.4 1-1 1h-22c-0.6 0-1-0.4-1-1v-2c0-0.6 0.4-1 1-1h22c0.6 0 1 0.4 1 1v2z"></path></svg>

<svg xmlns="http://www.w3.org/2000/svg" x="0px" y="0px"
	 width="52px" height="52px" viewBox="0 0 52 52" enable-background="new 0 0 52 52" xml:space="preserve">
<path fill="#FFFFFF" d="M48.5,38H44v-4.5c0-0.8-0.7-1.5-1.5-1.5h-3c-0.8,0-1.5,0.7-1.5,1.5V38h-4.5c-0.8,0-1.5,0.7-1.5,1.5v3
	c0,0.8,0.7,1.5,1.5,1.5H38v4.5c0,0.8,0.7,1.5,1.5,1.5h3c0.8,0,1.5-0.7,1.5-1.5V44h4.5c0.8,0,1.5-0.7,1.5-1.5v-3
	C50,38.7,49.3,38,48.5,38z"/>
<path fill="#FFFFFF" d="M34,29.5c0-0.8,0.7-1.5,1.5-1.5H38V6c0-2.2-1.8-4-4-4H6C3.8,2,2,3.8,2,6v28c0,2.2,1.8,4,4,4h22v-2.5
	c0-0.8,0.7-1.5,1.5-1.5H34V29.5z M16,11c0,0.6-0.4,1-1,1H9c-0.6,0-1-0.4-1-1V9c0-0.6,0.4-1,1-1h6c0.6,0,1,0.4,1,1V11z M28,27
	c0,0.6-0.4,1-1,1H9c-0.6,0-1-0.4-1-1v-2c0-0.6,0.4-1,1-1h18c0.6,0,1,0.4,1,1V27z M32,19c0,0.6-0.4,1-1,1H9c-0.6,0-1-0.4-1-1v-2
	c0-0.6,0.4-1,1-1h22c0.6,0,1,0.4,1,1V19z"/>
</svg>
